X: 95
T:Vigneron
M:3/8
L:1/8
C:Traditional
R:Bourree
Z:Steve Mansfield
K:G
|: GBA | G3 | BdB | dc/B/A | GBA| G3 | BdB | dc/B/A :|
|: Bce | d3 | Bdc | A3 | ccc | B/c/BG | B2 A| G3 :|

